X:5011
T:Benedict's Rambles
M:6/8
L:1/8
Q:180
C:Aidan Crossey
R:Jig
K:D
|:D2d dAF|G2B BdB|AFA dAF|G2E EBc|
dcd dAF|G2B BdB|AFA GEC|DFA d3:||
|:d2e fed|g2B BdB|d2e fed|ecB A3|
d2e fed|g2B BdB|AFA GEC|DFA d3:||
